**kern
*ICvox
*C:
*M4/4
*clefF4
r;
=1
*>Letter>A
*>Label>Intro
1r
=2
1r
=3
1r
=4
1r
=5
1r
=6
1r
=7
1r
=8
1r
=9
*>Letter>B
*>Label>Verse
8d
8e
8d
8c
4c
8A
16.e
32d
=10
8e
8r
4r
2r
=11
4r
8A
8c
8c
8A
8c
[8d
=12
8d]
8d
16B
16A
8G
2r
=13
8r
8~F
8A
8c
4c
8Gq
8A
8G
=14
4r
8r
8A
8c
8d
8e
8eq
8f
=15
4e
4r
2r
=16
2r
.
4r
8r
8dq
[8e
=17
*>Letter>B
*>Label>Verse
8e]
8e
8d
8c
4c
8A
16.e
32d
=18
8e
8r
4r
2r
=19
4r
8A
8c
8c
8c
8c
[8d
=20
8d]
8d
16B
16A
8G
2r
=21
8r
8A
8A
8c
4c
8Gq
4A
=22
4r
8r
8A
8c
8d
8e
8eq
8f
=23
4e
4r
2r
=24
2r
.
8r
8d
8e
[8f
=25
*>Letter>C
*>Label>Prechorus
8f]
8f
8dq
8e
8d
4d
8c
16d
16c
=26
8A
8r
4r
8r
8B
8B
8A
=27
4.A
8e
2e
=28
2r
4r
8r
8e
=29
8f
8f
8e
8d
8d
[8c
8c]
8d
=30
16c
8A
16r
4r
8r
8B
8B
8A
=31
4.A
8e
2e
=32
2r
8r
8c
8c
8A
=33
4.A
8e
4.e
16f
16e
=34
4.d
16e
16r
2r
=35
*>Letter>A
*>Label>Chorus
8e
4d
[8d
8d]
4e
8r
=36
4r
8d
[8e
8e]
4d
[8f
=37
4.f]
16e
16d
4.c
8r
=38
1r
=39
8e
4d
[8d
8d]
4e
8r
=40
4r
8d
[8e
8e]
4d
[8f
=41
4.f]
16f
16g
4.f
8r
=42
4r
8r
16c
16c
8a
8g
8g
8g
=43
*>Letter>A2
*>Label>Bridge
8dq
4.e
8r
2r
=44
4r
8r
16e
16e
8f
8f
8f
8g
=45
8d#q
8e
8d#q
8e
4r
2r
.
=46
1r
=47
*A:
1r
.
.
.
.
.
=48
1r
.
.
.
.
.
=49
2r
8r
16a
16a
8g#
[8f#
=50
4.f#]
8r
2r
=51
*>Letter>A
*>Label>Interlude
*clefG2
4r
8r
16dd
[16ee
4.ee]
[8dd
=52
4.dd]
[8cc
8cc]
8cc
8ccq
[4dd
=53
8dd]
8gq
8a
8gq
8a
8r
2r
=54
1r
=55
2r
8r
8gq
4a
[8g
=56
4.g]
16e
16d
2r
=57
1r
=58
*clefF4
2r
4r
8r
16G
16G
=59
*>Letter>B
*>Label>Verse
8e
8e
8d
8c
8c
8c
8A
16.e
32d
=60
8e
8r
4r
2r
=61
8r
8~A
8c
8c
8c
8A
8r
8c
=62
8d
8d
16B
16A
8G
2r
=63
8r
8~F
8A
8c
4c
8Gq
8A
8r
=64
4r
8r
8A
8c
8d
8e
16f
[16e
=65
16e]
16d
8c
4r
2r
=66
2r
.
8r
8d
8e
[8f
=67
*>Letter>C
*>Label>Prechorus
8f]
8c
8e
8d
8d
8c
8c
8d
=68
16c
8A
16r
4r
8r
8B
8B
8A
=69
4.A
8e
[4e
16e]
16~f
8r
=70
2r
4r
8r
8eq
[8f
=71
4f]
8e
8d
8e
8d
[8c
16d
16e
=72
2r
8r
8B
8B
8A
=73
4.A
8e
2e
=74
2r
8r
8c]
8c
8A
=75
4.A
8e
4.e
16f
16e
=76
4.d
16~e
16r
8r
8dq
4e
8r
=77
*>Letter>A
*>Label>Chorus
8e
4d
[8d
8d]
4e
8r
=78
4r
8d
[8e
8e]
4d
[8f
=79
4.f]
16e
16d
4.c
8r
=80
1r
=81
8e
4d
[8d
8d]
4e
8r
=82
4r
8d
[8e
8e]
4d
[8f
=83
4.f]
16f
16g
4.f
8r
=84
4r
8r
16c
16c
8a
8g
8g
8a
=85
*>Letter>A3
*>Label>Bridge
8fq
8g
8r
4r
2r
=86
4r
8r
16e
16e
8f
8f
8f
8g
=87
8d#q
8e
8d#q
8e
8d#q
8e
8r
.
2r
.
.
.
.
.
=88
8r
8d
8d
8e
16d
16B
8A
4r
=89
*A:
*
1r
.
.
.
.
.
=90
1r
.
.
.
.
.
=91
*clefG2
2r
.
.
8r
16a
[16a
16a]
8g#
.
[16f#
=92
4.f#]
16e
16d
2r
=93
*>Letter>A
*>Label>Interlude
*
4r
8r
8ddq
[8ee
8ee]
[4.dd
=94
4dd]
[4cc
8cc]
8cc
4dd
=95
8gq
6a
8gq
6a
6r
2r
=96
1r
=97
4r
8r
8ee
8dd
[8cc
4cc_
=98
16.cc]
32~b
8dd
4r
2r
=99
2r
8r
8ee
8ee
[8dd
=100
8.dd]
16ee
4r
2r
=101
*>Letter>A3
*>Label>Outro
2r
8r
4.ee
=102
4.dd
.
[8cc
8cc]
8dd
8dd
8r
*-
!!!BillboardChartDate: 1979/11/10
!!!BillboardPeak: 7
!!!BillboardWeeksOnChart: 20
!!!COC: Cliff Richard
!!!ENC: Nathaniel Condit-Schultz
!!!EST: Awating manual error checking and editing.
!!!OTL: We Don't Talk Anymore
!!!RDF**chordsym: original McGill chord annotation + (implied pitch class set, with bass pitch in first position)
!!!RDF**harmony: **recip + pitch class of root + harmonic quality
!!!RDF**leadinstrument: original McGill primary instrumentation annotation
!!!RDF**phrase: newline = linebreak in original McGill transcription
!!!RDF**timestamp: McGill audio timestamp in seconds
!!!RDT: 2017/01/12/
!!!SampleActualRank: 47
!!!SampleID#: 1273
!!!SampleTargetRank: 48
